build/logo/KasperskySolid.svg

<svg xmlns="http://www.w3.org/2000/svg" fill="none" viewBox="0 0 24 24" focusable="false"><path d="M0 0H24V24H0z"/><path fill="#74767B" fill-rule="evenodd" d="M5.6499 5.51611L7.69434 4.33594L10.2822 2.84155C10.5648 2.67847 10.8581 2.55623 11.1621 2.47485C11.4663 2.39331 11.7812 2.35254 12.1074 2.35254C12.4336 2.35254 12.7485 2.39331 13.0527 2.47485C13.3568 2.55623 13.6501 2.67847 13.9326 2.84155L16.521 4.33594L18.5649 5.51611C18.8804 5.69824 18.9849 6.08887 18.8027 6.40405C18.6211 6.71924 18.23 6.82397 17.915 6.64185L15.8706 5.46167L13.2822 3.96729C13.1006 3.86247 12.9118 3.78377 12.7158 3.7312C12.5202 3.67879 12.3174 3.65259 12.1074 3.65259C11.8975 3.65259 11.6948 3.67871 11.499 3.7312C11.3031 3.78377 11.1143 3.86247 10.9326 3.96729L8.34424 5.46167L6.2998 6.64185C5.98486 6.82397 5.59424 6.71924 5.41211 6.40405C5.22998 6.08887 5.33447 5.69824 5.6499 5.51611ZM6.86621 8.00146L11.2822 5.45166C11.4102 5.37793 11.5425 5.32275 11.6802 5.28589C11.8179 5.24902 11.96 5.23071 12.1074 5.23071C12.2549 5.23071 12.3973 5.2491 12.5347 5.28589C12.6724 5.32275 12.8047 5.37793 12.9326 5.45166L17.3491 8.00146C17.4766 8.0752 17.5908 8.16235 17.6914 8.26294C17.792 8.36377 17.8794 8.47778 17.9526 8.60547C18.0264 8.73315 18.082 8.86572 18.1187 9.00317C18.1553 9.14062 18.1738 9.28296 18.1738 9.43042L18.1738 14.53C18.1738 14.6775 18.1554 14.8199 18.1187 14.9573C18.082 15.0947 18.0264 15.2275 17.9526 15.3552C17.8794 15.4827 17.792 15.5969 17.6914 15.6975C17.5908 15.7981 17.4766 15.8855 17.3491 15.959L12.9326 18.5088C12.8047 18.5825 12.6724 18.6379 12.5347 18.6748C12.3975 18.7114 12.2549 18.73 12.1074 18.73C11.96 18.73 11.8179 18.7114 11.6802 18.6748C11.5425 18.6379 11.4102 18.5825 11.2822 18.5088L6.86621 15.959C6.73828 15.8855 6.62402 15.7981 6.52344 15.6975C6.42285 15.5969 6.33594 15.4827 6.26221 15.3552C6.18848 15.2275 6.1333 15.095 6.09619 14.9575C6.05957 14.8198 6.04102 14.6775 6.04102 14.53L6.04102 9.43042C6.04102 9.28296 6.05957 9.14062 6.09619 9.00317C6.13298 8.86564 6.18831 8.73307 6.26221 8.60547C6.33594 8.47778 6.42285 8.36377 6.52344 8.26294C6.62435 8.16235 6.73861 8.0752 6.86621 8.00146ZM3.93066 8.96973C4.29492 8.96973 4.58057 9.25562 4.58057 9.61963L4.58057 11.98L4.58057 14.9688C4.58057 15.1787 4.60693 15.3816 4.65967 15.5774C4.71191 15.7732 4.79053 15.9622 4.89551 16.1438C5.10547 16.5073 5.39209 16.7942 5.75586 17.0039L8.34424 18.4983L10.3882 19.6785C10.7036 19.8606 10.8081 20.2512 10.626 20.5664C10.4443 20.8818 10.0537 20.9863 9.73828 20.8044L7.69434 19.6243L5.10596 18.1299C4.82324 17.9668 4.5708 17.7739 4.34814 17.5513C4.12549 17.3286 3.93262 17.0762 3.76953 16.7939C3.60693 16.5115 3.48438 16.2183 3.40283 15.9141C3.32145 15.6099 3.28076 15.2948 3.28076 14.9688L3.28076 11.98L3.28076 9.61963C3.28076 9.25562 3.56689 8.96973 3.93066 8.96973ZM20.9341 14.9688L20.9341 9.61963C20.9341 9.25562 20.6479 8.96973 20.2842 8.96973C19.9199 8.96973 19.6343 9.25562 19.6343 9.61963L19.6343 14.9688C19.6343 15.1787 19.6079 15.3816 19.5557 15.5774C19.5029 15.7732 19.4243 15.9622 19.3193 16.1438C19.2145 16.3256 19.0903 16.4882 18.9468 16.6316C18.8035 16.775 18.6409 16.8991 18.459 17.0039L13.8267 19.6785C13.5112 19.8606 13.4067 20.2512 13.5889 20.5664C13.7705 20.8818 14.1616 20.9863 14.4766 20.8044L16.521 19.6243L19.1094 18.1299C19.6738 17.8037 20.1191 17.3584 20.4453 16.7939C20.771 16.2292 20.9341 15.6208 20.9341 14.9688Z"/></svg>

<svg xmlns="http://www.w3.org/2000/svg" fill="none" viewBox="0 0 24 24" focusable="false"><path fill="#74767B" fill-rule="evenodd" d="m5.64 5.51 2.05-1.18 2.59-1.49c.28-.17.57-.29.88-.37a3.748 3.748 0 0 1 1.89 0c.3.08.59.2.88.37l2.59 1.49 2.04 1.18c.32.18.42.57.24.89-.18.31-.57.42-.89.24l-2.04-1.18-2.59-1.5c-.18-.1-.37-.18-.57-.23-.19-.06-.4-.08-.61-.08s-.41.02-.61.08c-.19.05-.38.13-.56.23l-2.59 1.5-2.05 1.18c-.31.18-.7.07-.88-.24a.64.64 0 0 1 .23-.89M6.86 8l4.42-2.55c.13-.08.26-.13.4-.17.13-.04.28-.05.42-.05a1.54 1.54 0 0 1 .83.22L17.34 8c.13.07.25.16.35.26s.18.21.26.34c.07.13.13.26.16.4.04.14.06.28.06.43v5.1q0 .21-.06.42c-.03.14-.09.27-.16.4-.08.13-.16.24-.26.34s-.22.19-.35.26l-4.41 2.55c-.13.08-.26.13-.4.17a1.54 1.54 0 0 1-.85 0c-.14-.04-.27-.09-.4-.17l-4.42-2.55a1.5 1.5 0 0 1-.34-.26c-.1-.1-.19-.21-.26-.34a1.509 1.509 0 0 1-.22-.82v-5.1a1.54 1.54 0 0 1 .22-.83c.07-.13.16-.24.26-.34s.21-.19.34-.26m-2.93.96c.36 0 .65.29.65.65v5.35c0 .21.02.42.07.61q.09.3.24.57c.21.36.5.65.86.86l2.59 1.49 2.04 1.18c.32.19.42.58.24.89-.18.32-.57.42-.89.24l-2.04-1.18-2.59-1.5c-.28-.16-.53-.35-.76-.57a4.4 4.4 0 0 1-.58-.76c-.16-.28-.28-.58-.36-.88-.08-.31-.12-.62-.12-.95V9.61c0-.36.28-.65.65-.65m17 6V9.61c0-.36-.29-.65-.65-.65-.37 0-.65.29-.65.65v5.35c0 .21-.03.42-.08.61q-.075.3-.24.57c-.1.18-.22.34-.37.49-.14.14-.3.26-.49.37l-4.63 2.67c-.31.19-.42.58-.24.89.19.32.58.42.89.24l2.05-1.18 2.58-1.5c.57-.32 1.01-.77 1.34-1.33.33-.57.49-1.17.49-1.83"/></svg>
